

(======HEADER=====================)
(G00 – Rapid Positioning------------Laser OFF)
(G01 – Linear interpolation------------ )
(G02 – Circular interpolation CCW------------ )
(G02 – Circular interpolation CW------------ )
(Gcode G91 & Gcode G90: CNC Absolute and Incremental Programming)
(S00 - S1000 Spindle speed)
(M03 – Spindle on in a clockwise)
(======POST PROCESSING===========)
((++++++++++++++++++++++++)\r\n S1000	(---Laser 100% ON))
(-------------------------)\r\n S000	(---Laser 00% OFF))
(======START=====================)
(======CODE MANDATORY============)
M3 S0  (M03 – Spindle on in a clockwise)
(================================)
(=BEGIN Engrave=========================)
(Engrave)
G0 F1000 Z6.000000
G0 F1000 Z6.000000
G0 F1000 X145.907883 Y145.634964
(========================)
 S1000	(---Laser 100% ON))
G1 F1000 X145.907883 Y145.634964 Z-5.000000
G3 F1000 I-15.000000 J0.000000 K0.000000 X145.907883 Y145.634964 Z-5.000000
(-------------------------)
 S000	(---Laser 00% OFF))

G0 F1000 X185.407883 Y145.634964
(========================)
 S1000	(---Laser 100% ON))
G1 F1000 X185.407883 Y145.634964 Z-5.000000
G3 F1000 I-14.500000 J0.000000 K0.000000 X185.407883 Y145.634964 Z-5.000000
(-------------------------)
 S000	(---Laser 00% OFF))

G0 F1000 X150.907883 Y125.634964
(========================)
 S1000	(---Laser 100% ON))
G1 F1000 X150.907883 Y125.634964 Z-5.000000
G1 F1000 X190.907883 Y125.634964 Z-5.000000
G1 F1000 X190.907883 Y165.634964 Z-5.000000
G1 F1000 X110.907883 Y165.634964 Z-5.000000
G1 F1000 X110.907883 Y145.634964 Z-5.000000
G1 F1000 X110.907883 Y125.634964 Z-5.000000
G1 F1000 X150.907883 Y125.634964 Z-5.000000
(-------------------------)
 S000	(---Laser 00% OFF))

(-------------------------)
 S000	(---Laser 00% OFF))
G0 F1000 X249.805893 Y103.895332
(========================)
 S1000	(---Laser 100% ON))
G1 F1000 X249.805893 Y103.895332 Z-5.000000
G3 F1000 I-15.000000 J0.000000 K0.000000 X249.805893 Y103.895332 Z-5.000000
(-------------------------)
 S000	(---Laser 00% OFF))

G0 F1000 X209.805893 Y103.895332
(========================)
 S1000	(---Laser 100% ON))
G1 F1000 X209.805893 Y103.895332 Z-5.000000
G3 F1000 I-15.000000 J0.000000 K0.000000 X209.805893 Y103.895332 Z-5.000000
(-------------------------)
 S000	(---Laser 00% OFF))

G0 F1000 X289.305893 Y103.895332
(========================)
 S1000	(---Laser 100% ON))
G1 F1000 X289.305893 Y103.895332 Z-5.000000
G3 F1000 I-14.500000 J0.000000 K0.000000 X289.305893 Y103.895332 Z-5.000000
(-------------------------)
 S000	(---Laser 00% OFF))

G0 F1000 X234.805893 Y123.895332
(========================)
 S1000	(---Laser 100% ON))
G1 F1000 X234.805893 Y123.895332 Z-5.000000
G1 F1000 X174.805893 Y123.895332 Z-5.000000
G1 F1000 X174.805893 Y83.895332 Z-5.000000
G1 F1000 X294.805893 Y83.895332 Z-5.000000
G1 F1000 X294.805893 Y103.895332 Z-5.000000
G1 F1000 X294.805893 Y123.895332 Z-5.000000
G1 F1000 X234.805893 Y123.895332 Z-5.000000
(-------------------------)
 S000	(---Laser 00% OFF))

(-------------------------)
 S000	(---Laser 00% OFF))
G0 F1000 X145.720078 Y61.538574
(========================)
 S1000	(---Laser 100% ON))
G1 F1000 X145.720078 Y61.538574 Z-5.000000
G3 F1000 I-15.000000 J0.000000 K0.000000 X145.720078 Y61.538574 Z-5.000000
(-------------------------)
 S000	(---Laser 00% OFF))

G0 F1000 X145.720078 Y21.538574
(========================)
 S1000	(---Laser 100% ON))
G1 F1000 X145.720078 Y21.538574 Z-5.000000
G3 F1000 I-15.000000 J0.000000 K0.000000 X145.720078 Y21.538574 Z-5.000000
(-------------------------)
 S000	(---Laser 00% OFF))

G0 F1000 X185.220078 Y61.538574
(========================)
 S1000	(---Laser 100% ON))
G1 F1000 X185.220078 Y61.538574 Z-5.000000
G3 F1000 I-14.500000 J0.000000 K0.000000 X185.220078 Y61.538574 Z-5.000000
(-------------------------)
 S000	(---Laser 00% OFF))

G0 F1000 X185.720078 Y21.538574
(========================)
 S1000	(---Laser 100% ON))
G1 F1000 X185.720078 Y21.538574 Z-5.000000
G3 F1000 I-15.000000 J0.000000 K0.000000 X185.720078 Y21.538574 Z-5.000000
(-------------------------)
 S000	(---Laser 00% OFF))

G0 F1000 X110.720078 Y81.538574
(========================)
 S1000	(---Laser 100% ON))
G1 F1000 X110.720078 Y81.538574 Z-5.000000
G1 F1000 X110.720078 Y1.538574 Z-5.000000
G1 F1000 X190.720078 Y1.538574 Z-5.000000
G1 F1000 X190.720078 Y81.538574 Z-5.000000
G1 F1000 X110.720078 Y81.538574 Z-5.000000
(-------------------------)
 S000	(---Laser 00% OFF))

(-------------------------)
 S000	(---Laser 00% OFF))
G0 F1000 X263.803192 Y44.656147
(========================)
 S1000	(---Laser 100% ON))
G1 F1000 X263.803192 Y44.656147 Z-5.000000
G3 F1000 I-20.000000 J0.000000 K0.000000 X263.803192 Y44.656147 Z-5.000000
(-------------------------)
 S000	(---Laser 00% OFF))

G0 F1000 X243.803192 Y74.656147
(========================)
 S1000	(---Laser 100% ON))
G1 F1000 X243.803192 Y74.656147 Z-5.000000
G1 F1000 X233.803192 Y74.656147 Z-5.000000
G1 F1000 X233.803192 Y78.656147 Z-5.000000
G1 F1000 X231.303192 Y78.656147 Z-5.000000
G1 F1000 X228.803192 Y78.656147 Z-5.000000
G1 F1000 X228.803192 Y74.656147 Z-5.000000
G1 F1000 X196.303192 Y74.656147 Z-5.000000
G1 F1000 X196.303192 Y14.656147 Z-5.000000
G1 F1000 X236.303192 Y14.656147 Z-5.000000
G1 F1000 X236.303192 Y2.656147 Z-5.000000
G1 F1000 X251.303192 Y2.656147 Z-5.000000
G1 F1000 X251.303192 Y14.656147 Z-5.000000
G1 F1000 X291.303192 Y14.656147 Z-5.000000
G1 F1000 X291.303192 Y74.656147 Z-5.000000
G1 F1000 X243.803192 Y74.656147 Z-5.000000
G1 F1000 X243.803192 Y69.656147 Z-5.000000
(-------------------------)
 S000	(---Laser 00% OFF))

G0 F1000 X201.303192 Y67.156147
(========================)
 S1000	(---Laser 100% ON))
G1 F1000 X201.303192 Y67.156147 Z-5.000000
G3 F1000 I0.000000 J-2.500000 K0.000000 X201.303192 Y62.156147 Z-5.000000
G1 F1000 X206.303192 Y62.156147 Z-5.000000
G3 F1000 I0.000000 J2.500000 K0.000000 X206.303192 Y67.156147 Z-5.000000
G1 F1000 X201.303192 Y67.156147 Z-5.000000
(-------------------------)
 S000	(---Laser 00% OFF))

G0 F1000 X201.303192 Y27.156147
(========================)
 S1000	(---Laser 100% ON))
G1 F1000 X201.303192 Y27.156147 Z-5.000000
G3 F1000 I0.000000 J-2.500000 K0.000000 X201.303192 Y22.156147 Z-5.000000
G1 F1000 X206.303192 Y22.156147 Z-5.000000
G3 F1000 I0.000000 J2.500000 K0.000000 X206.303192 Y27.156147 Z-5.000000
G1 F1000 X201.303192 Y27.156147 Z-5.000000
(-------------------------)
 S000	(---Laser 00% OFF))

G0 F1000 X286.303192 Y22.156147
(========================)
 S1000	(---Laser 100% ON))
G1 F1000 X286.303192 Y22.156147 Z-5.000000
G3 F1000 I0.000000 J2.500000 K0.000000 X286.303192 Y27.156147 Z-5.000000
G1 F1000 X281.303192 Y27.156147 Z-5.000000
G3 F1000 I0.000000 J-2.500000 K0.000000 X281.303192 Y22.156147 Z-5.000000
G1 F1000 X286.303192 Y22.156147 Z-5.000000
(-------------------------)
 S000	(---Laser 00% OFF))

G0 F1000 X286.303192 Y62.156147
(========================)
 S1000	(---Laser 100% ON))
G1 F1000 X286.303192 Y62.156147 Z-5.000000
G3 F1000 I0.000000 J2.500000 K0.000000 X286.303192 Y67.156147 Z-5.000000
G1 F1000 X281.303192 Y67.156147 Z-5.000000
G3 F1000 I0.000000 J-2.500000 K0.000000 X281.303192 Y62.156147 Z-5.000000
G1 F1000 X286.303192 Y62.156147 Z-5.000000
(-------------------------)
 S000	(---Laser 00% OFF))

G0 F1000 X201.303192 Y44.656147
(========================)
 S1000	(---Laser 100% ON))
G1 F1000 X201.303192 Y44.656147 Z-5.000000
G1 F1000 X196.303192 Y44.656147 Z-5.000000
(-------------------------)
 S000	(---Laser 00% OFF))

G0 F1000 X286.303192 Y44.656147
(========================)
 S1000	(---Laser 100% ON))
G1 F1000 X286.303192 Y44.656147 Z-5.000000
G1 F1000 X291.303192 Y44.656147 Z-5.000000
(-------------------------)
 S000	(---Laser 00% OFF))

G0 F1000 X262.711380 Y174.032623
(========================)
 S1000	(---Laser 100% ON))
G1 F1000 X262.711380 Y174.032623 Z-5.000000
G3 F1000 I-20.000000 J0.000000 K0.000000 X262.711380 Y174.032623 Z-5.000000
(-------------------------)
 S000	(---Laser 00% OFF))

G0 F1000 X242.711380 Y204.032623
(========================)
 S1000	(---Laser 100% ON))
G1 F1000 X242.711380 Y204.032623 Z-5.000000
G1 F1000 X232.711380 Y204.032623 Z-5.000000
G1 F1000 X232.711380 Y208.032623 Z-5.000000
G1 F1000 X230.211380 Y208.032623 Z-5.000000
G1 F1000 X227.711380 Y208.032623 Z-5.000000
G1 F1000 X227.711380 Y204.032623 Z-5.000000
G1 F1000 X195.211380 Y204.032623 Z-5.000000
G1 F1000 X195.211380 Y144.032623 Z-5.000000
G1 F1000 X235.211380 Y144.032623 Z-5.000000
G1 F1000 X235.211380 Y132.032623 Z-5.000000
G1 F1000 X250.211380 Y132.032623 Z-5.000000
G1 F1000 X250.211380 Y144.032623 Z-5.000000
G1 F1000 X290.211380 Y144.032623 Z-5.000000
G1 F1000 X290.211380 Y204.032623 Z-5.000000
G1 F1000 X242.711380 Y204.032623 Z-5.000000
G1 F1000 X242.711380 Y199.032623 Z-5.000000
(-------------------------)
 S000	(---Laser 00% OFF))

G0 F1000 X200.211380 Y196.532623
(========================)
 S1000	(---Laser 100% ON))
G1 F1000 X200.211380 Y196.532623 Z-5.000000
G3 F1000 I0.000000 J-2.500000 K0.000000 X200.211380 Y191.532623 Z-5.000000
G1 F1000 X205.211380 Y191.532623 Z-5.000000
G3 F1000 I0.000000 J2.500000 K0.000000 X205.211380 Y196.532623 Z-5.000000
G1 F1000 X200.211380 Y196.532623 Z-5.000000
(-------------------------)
 S000	(---Laser 00% OFF))

G0 F1000 X200.211380 Y156.532623
(========================)
 S1000	(---Laser 100% ON))
G1 F1000 X200.211380 Y156.532623 Z-5.000000
G3 F1000 I0.000000 J-2.500000 K0.000000 X200.211380 Y151.532623 Z-5.000000
G1 F1000 X205.211380 Y151.532623 Z-5.000000
G3 F1000 I0.000000 J2.500000 K0.000000 X205.211380 Y156.532623 Z-5.000000
G1 F1000 X200.211380 Y156.532623 Z-5.000000
(-------------------------)
 S000	(---Laser 00% OFF))

G0 F1000 X285.211380 Y151.532623
(========================)
 S1000	(---Laser 100% ON))
G1 F1000 X285.211380 Y151.532623 Z-5.000000
G3 F1000 I0.000000 J2.500000 K0.000000 X285.211380 Y156.532623 Z-5.000000
G1 F1000 X280.211380 Y156.532623 Z-5.000000
G3 F1000 I0.000000 J-2.500000 K0.000000 X280.211380 Y151.532623 Z-5.000000
G1 F1000 X285.211380 Y151.532623 Z-5.000000
(-------------------------)
 S000	(---Laser 00% OFF))

G0 F1000 X285.211380 Y191.532623
(========================)
 S1000	(---Laser 100% ON))
G1 F1000 X285.211380 Y191.532623 Z-5.000000
G3 F1000 I0.000000 J2.500000 K0.000000 X285.211380 Y196.532623 Z-5.000000
G1 F1000 X280.211380 Y196.532623 Z-5.000000
G3 F1000 I0.000000 J-2.500000 K0.000000 X280.211380 Y191.532623 Z-5.000000
G1 F1000 X285.211380 Y191.532623 Z-5.000000
(-------------------------)
 S000	(---Laser 00% OFF))

G0 F1000 X200.211380 Y174.032623
(========================)
 S1000	(---Laser 100% ON))
G1 F1000 X200.211380 Y174.032623 Z-5.000000
G1 F1000 X195.211380 Y174.032623 Z-5.000000
(-------------------------)
 S000	(---Laser 00% OFF))

G0 F1000 X285.211380 Y174.032623
(========================)
 S1000	(---Laser 100% ON))
G1 F1000 X285.211380 Y174.032623 Z-5.000000
G1 F1000 X290.211380 Y174.032623 Z-5.000000
(-------------------------)
 S000	(---Laser 00% OFF))

(-------------------------)
 S000	(---Laser 00% OFF))
G0 F1000 X52.500000 Y5.000000
(========================)
 S1000	(---Laser 100% ON))
G1 F1000 X52.500000 Y5.000000 Z-5.000000
G1 F1000 X5.000000 Y5.000000 Z-5.000000
G1 F1000 X5.000000 Y32.500000 Z-5.000000
G1 F1000 X5.000000 Y60.000000 Z-5.000000
G1 F1000 X23.000000 Y60.000000 Z-5.000000
G1 F1000 X23.000000 Y70.000000 Z-5.000000
G1 F1000 X33.000000 Y70.000000 Z-5.000000
G1 F1000 X43.000000 Y70.000000 Z-5.000000
G1 F1000 X43.000000 Y60.000000 Z-5.000000
G1 F1000 X100.000000 Y60.000000 Z-5.000000
G1 F1000 X100.000000 Y5.000000 Z-5.000000
G1 F1000 X52.500000 Y5.000000 Z-5.000000
G1 F1000 X52.500000 Y7.900702 Z-5.000000
(-------------------------)
 S000	(---Laser 00% OFF))

G0 F1000 X5.000000 Y32.500000
(========================)
 S1000	(---Laser 100% ON))
G1 F1000 X5.000000 Y32.500000 Z-5.000000
G1 F1000 X7.900702 Y32.500000 Z-5.000000
(-------------------------)
 S000	(---Laser 00% OFF))

G0 F1000 X67.500000 Y32.500000
(========================)
 S1000	(---Laser 100% ON))
G1 F1000 X67.500000 Y32.500000 Z-5.000000
G3 F1000 I-15.000000 J0.000000 K0.000000 X67.500000 Y32.500000 Z-5.000000
(-------------------------)
 S000	(---Laser 00% OFF))

G0 F1000 X10.500000 Y55.100000
(========================)
 S1000	(---Laser 100% ON))
G1 F1000 X10.500000 Y55.100000 Z-5.000000
G3 F1000 I0.000000 J-2.600000 K0.000000 X10.500000 Y49.900000 Z-5.000000
G1 F1000 X13.100000 Y49.900000 Z-5.000000
G3 F1000 I0.000000 J2.600000 K0.000000 X13.100000 Y55.100000 Z-5.000000
G1 F1000 X10.500000 Y55.100000 Z-5.000000
(-------------------------)
 S000	(---Laser 00% OFF))

G0 F1000 X94.500000 Y49.900000
(========================)
 S1000	(---Laser 100% ON))
G1 F1000 X94.500000 Y49.900000 Z-5.000000
G3 F1000 I0.000000 J2.600000 K0.000000 X94.500000 Y55.100000 Z-5.000000
G1 F1000 X91.900000 Y55.100000 Z-5.000000
G3 F1000 I0.000000 J-2.600000 K0.000000 X91.900000 Y49.900000 Z-5.000000
G1 F1000 X94.500000 Y49.900000 Z-5.000000
(-------------------------)
 S000	(---Laser 00% OFF))

G0 F1000 X10.500000 Y9.900000
(========================)
 S1000	(---Laser 100% ON))
G1 F1000 X10.500000 Y9.900000 Z-5.000000
G1 F1000 X13.100000 Y9.900000 Z-5.000000
G3 F1000 I0.000000 J2.600000 K0.000000 X13.100000 Y15.100000 Z-5.000000
G1 F1000 X10.500000 Y15.100000 Z-5.000000
G3 F1000 I0.000000 J-2.600000 K0.000000 X10.500000 Y9.900000 Z-5.000000
(-------------------------)
 S000	(---Laser 00% OFF))

G0 F1000 X91.900000 Y15.100000
(========================)
 S1000	(---Laser 100% ON))
G1 F1000 X91.900000 Y15.100000 Z-5.000000
G3 F1000 I0.000000 J-2.600000 K0.000000 X91.900000 Y9.900000 Z-5.000000
G1 F1000 X94.500000 Y9.900000 Z-5.000000
G3 F1000 I0.000000 J2.600000 K0.000000 X94.500000 Y15.100000 Z-5.000000
G1 F1000 X91.900000 Y15.100000 Z-5.000000
(-------------------------)
 S000	(---Laser 00% OFF))

G0 F1000 X100.000000 Y32.500000
(========================)
 S1000	(---Laser 100% ON))
G1 F1000 X100.000000 Y32.500000 Z-5.000000
G1 F1000 X97.099298 Y32.500000 Z-5.000000
(-------------------------)
 S000	(---Laser 00% OFF))

G0 F1000 X52.500000 Y60.000000
(========================)
 S1000	(---Laser 100% ON))
G1 F1000 X52.500000 Y60.000000 Z-5.000000
G1 F1000 X52.500000 Y57.099298 Z-5.000000
(-------------------------)
 S000	(---Laser 00% OFF))

(-------------------------)
 S000	(---Laser 00% OFF))
G0 F1000 X94.793118 Y94.888771
(========================)
 S1000	(---Laser 100% ON))
G1 F1000 X94.793118 Y94.888771 Z-5.000000
G3 F1000 I-1.000000 J0.000000 K0.000000 X94.793118 Y94.888771 Z-5.000000
(-------------------------)
 S000	(---Laser 00% OFF))

G0 F1000 X94.793118 Y129.888771
(========================)
 S1000	(---Laser 100% ON))
G1 F1000 X94.793118 Y129.888771 Z-5.000000
G3 F1000 I-1.000000 J0.000000 K0.000000 X94.793118 Y129.888771 Z-5.000000
(-------------------------)
 S000	(---Laser 00% OFF))

G0 F1000 X14.793118 Y129.888771
(========================)
 S1000	(---Laser 100% ON))
G1 F1000 X14.793118 Y129.888771 Z-5.000000
G3 F1000 I-1.000000 J0.000000 K0.000000 X14.793118 Y129.888771 Z-5.000000
(-------------------------)
 S000	(---Laser 00% OFF))

G0 F1000 X14.793118 Y94.888771
(========================)
 S1000	(---Laser 100% ON))
G1 F1000 X14.793118 Y94.888771 Z-5.000000
G3 F1000 I-1.000000 J0.000000 K0.000000 X14.793118 Y94.888771 Z-5.000000
(-------------------------)
 S000	(---Laser 00% OFF))

G0 F1000 X53.793118 Y79.888771
(========================)
 S1000	(---Laser 100% ON))
G1 F1000 X53.793118 Y79.888771 Z-5.000000
G1 F1000 X103.793118 Y79.888771 Z-5.000000
G1 F1000 X103.793118 Y103.797585 Z-5.000000
G1 F1000 X108.793118 Y103.797585 Z-5.000000
G1 F1000 X108.793118 Y112.388771 Z-5.000000
G1 F1000 X108.793118 Y120.979957 Z-5.000000
G1 F1000 X103.793118 Y120.979957 Z-5.000000
G1 F1000 X103.793118 Y134.888771 Z-5.000000
G1 F1000 X53.793118 Y134.888771 Z-5.000000
G1 F1000 X3.793118 Y134.888771 Z-5.000000
G1 F1000 X3.793118 Y107.388771 Z-5.000000
G1 F1000 X3.793118 Y79.888771 Z-5.000000
G1 F1000 X53.793118 Y79.888771 Z-5.000000
G1 F1000 X53.793118 Y84.888771 Z-5.000000
(-------------------------)
 S000	(---Laser 00% OFF))

G0 F1000 X10.293118 Y129.888771
(========================)
 S1000	(---Laser 100% ON))
G1 F1000 X10.293118 Y129.888771 Z-5.000000
G3 F1000 I-1.500000 J0.000000 K0.000000 X10.293118 Y129.888771 Z-5.000000
(-------------------------)
 S000	(---Laser 00% OFF))

G0 F1000 X100.293118 Y129.888771
(========================)
 S1000	(---Laser 100% ON))
G1 F1000 X100.293118 Y129.888771 Z-5.000000
G3 F1000 I-1.500000 J0.000000 K0.000000 X100.293118 Y129.888771 Z-5.000000
(-------------------------)
 S000	(---Laser 00% OFF))

G0 F1000 X100.293118 Y84.888771
(========================)
 S1000	(---Laser 100% ON))
G1 F1000 X100.293118 Y84.888771 Z-5.000000
G3 F1000 I-1.500000 J0.000000 K0.000000 X100.293118 Y84.888771 Z-5.000000
(-------------------------)
 S000	(---Laser 00% OFF))

G0 F1000 X10.293118 Y84.888771
(========================)
 S1000	(---Laser 100% ON))
G1 F1000 X10.293118 Y84.888771 Z-5.000000
G3 F1000 I-1.500000 J0.000000 K0.000000 X10.293118 Y84.888771 Z-5.000000
(-------------------------)
 S000	(---Laser 00% OFF))

G0 F1000 X95.687000 Y160.141953
(========================)
 S1000	(---Laser 100% ON))
G1 F1000 X95.687000 Y160.141953 Z-5.000000
G3 F1000 I-1.000000 J0.000000 K0.000000 X95.687000 Y160.141953 Z-5.000000
(-------------------------)
 S000	(---Laser 00% OFF))

G0 F1000 X95.687000 Y195.141953
(========================)
 S1000	(---Laser 100% ON))
G1 F1000 X95.687000 Y195.141953 Z-5.000000
G3 F1000 I-1.000000 J0.000000 K0.000000 X95.687000 Y195.141953 Z-5.000000
(-------------------------)
 S000	(---Laser 00% OFF))

G0 F1000 X15.687000 Y195.141953
(========================)
 S1000	(---Laser 100% ON))
G1 F1000 X15.687000 Y195.141953 Z-5.000000
G3 F1000 I-1.000000 J0.000000 K0.000000 X15.687000 Y195.141953 Z-5.000000
(-------------------------)
 S000	(---Laser 00% OFF))

G0 F1000 X15.687000 Y160.141953
(========================)
 S1000	(---Laser 100% ON))
G1 F1000 X15.687000 Y160.141953 Z-5.000000
G3 F1000 I-1.000000 J0.000000 K0.000000 X15.687000 Y160.141953 Z-5.000000
(-------------------------)
 S000	(---Laser 00% OFF))

G0 F1000 X54.687000 Y145.141953
(========================)
 S1000	(---Laser 100% ON))
G1 F1000 X54.687000 Y145.141953 Z-5.000000
G1 F1000 X104.687000 Y145.141953 Z-5.000000
G1 F1000 X104.687000 Y169.050767 Z-5.000000
G1 F1000 X109.687000 Y169.050767 Z-5.000000
G1 F1000 X109.687000 Y177.641953 Z-5.000000
G1 F1000 X109.687000 Y186.233139 Z-5.000000
G1 F1000 X104.687000 Y186.233139 Z-5.000000
G1 F1000 X104.687000 Y200.141953 Z-5.000000
G1 F1000 X54.687000 Y200.141953 Z-5.000000
G1 F1000 X4.687000 Y200.141953 Z-5.000000
G1 F1000 X4.687000 Y172.641953 Z-5.000000
G1 F1000 X4.687000 Y145.141953 Z-5.000000
G1 F1000 X54.687000 Y145.141953 Z-5.000000
G1 F1000 X54.687000 Y150.141953 Z-5.000000
(-------------------------)
 S000	(---Laser 00% OFF))

G0 F1000 X11.187000 Y195.141953
(========================)
 S1000	(---Laser 100% ON))
G1 F1000 X11.187000 Y195.141953 Z-5.000000
G3 F1000 I-1.500000 J0.000000 K0.000000 X11.187000 Y195.141953 Z-5.000000
(-------------------------)
 S000	(---Laser 00% OFF))

G0 F1000 X101.187000 Y195.141953
(========================)
 S1000	(---Laser 100% ON))
G1 F1000 X101.187000 Y195.141953 Z-5.000000
G3 F1000 I-1.500000 J0.000000 K0.000000 X101.187000 Y195.141953 Z-5.000000
(-------------------------)
 S000	(---Laser 00% OFF))

G0 F1000 X101.187000 Y150.141953
(========================)
 S1000	(---Laser 100% ON))
G1 F1000 X101.187000 Y150.141953 Z-5.000000
G3 F1000 I-1.500000 J0.000000 K0.000000 X101.187000 Y150.141953 Z-5.000000
(-------------------------)
 S000	(---Laser 00% OFF))

G0 F1000 X11.187000 Y150.141953
(========================)
 S1000	(---Laser 100% ON))
G1 F1000 X11.187000 Y150.141953 Z-5.000000
G3 F1000 I-1.500000 J0.000000 K0.000000 X11.187000 Y150.141953 Z-5.000000
G0 Z6.000000



(=END Engrave===========================)
(======END============)
S0 		(--Laser 000% OFF)
