(Changes==========================)
(template_2022_09_02.nc)
(template_2022_11_15.nc Gimp post processing, LaserOn LaserOff keywords easier to select and highlight)
(template_2022_11_18.nc Gimp post processing F500 S250 for size font 18)
(======HEADER=====================)
(G00 – Rapid Positioning------------Laser OFF)
(G01 – Linear interpolation------------ )
(G02 – Circular interpolation CCW------------ )
(G02 – Circular interpolation CW------------ )
(Gcode G91 & Gcode G90: CNC Absolute and Incremental Programming)
(S00 - S1000 Spindle speed)
(M03 – Spindle on in a clockwise)
(======POST PROCESSING====FREECAD=======)
(REPLACE (CUT); (CUT) \r\n S1000	(---LaserOn 100% ON))
(Penetrate)
(REPLACE F0.166667 ; F1000)
(REPLACE F8.333333 ; F1000)
(REPLACE F0.000000 ; F1000)
(REPLACE Z-5.000000 ;  )
(REPLACE Z-5.000000 ; \r\n S1000	(---LaserOff 100% ON))
(======POST PROCESSING====GIMP=======)
(REPLACE (Penetrate); (Penetrate) \r\n S1000	(---LaserOn 100% ON))
(REPLACE G00 Z 0.0000 G00 Z 0.0000\n\rS000	(---LaserOff 000%))
(REPLACE (Penetrate); (Penetrate) \r\n S250	(---LaserOn 100% ON))
(REPLACE G01 G01 F1000 )
(REPLACE G02 G01 F1000 )
(REPLACE G03 G01 F1000 )
(======START=====================)
(======CODE MANDATORY============)
M3 S0  (M03 – Spindle on in a clockwise)
(================================)
S0 		(--LaserOff 000% OFF)
G0 F1000 X0.000000 Y0.000000
S1000	(---LaserOn 100% ON)
S0 		(---LaserOff 000% OFF)
(=BEGIN Engrave=========================)

(Engrave)
G0 F1000 Z6.000000 S0
G0 F1000 Z6.000000 S0
G0 F1000 X125.320787 Y18.006843
G0 F1000 Z4.000000 S1000
G1 F1000 X125.320787 Y18.006843 Z-5.000000
G1 F1000 X124.140291 Y21.676647 Z-5.000000
G1 F1000 X122.929855 Y18.006843 Z-5.000000
G1 F1000 X122.536356 Y16.852010 Z-5.000000
G1 F1000 X121.933276 Y15.000000 Z-5.000000
G1 F1000 X120.290847 Y15.000000 Z-5.000000
G1 F1000 X123.190761 Y23.528657 Z-5.000000
G1 F1000 X125.149701 Y23.528657 Z-5.000000
G1 F1000 X127.934132 Y15.000000 Z-5.000000
G1 F1000 X126.291702 Y15.000000 Z-5.000000
G1 F1000 X125.701454 Y16.839179 Z-5.000000
G1 F1000 X123.062447 Y16.839179 Z-5.000000
G1 F1000 X123.443114 Y18.023952 Z-5.000000
G1 F1000 X125.320787 Y18.006843 Z-5.000000
G0 F1000 Z6.000000 S0
G0 F1000 Z6.000000 S0
G0 F1000 X136.163388 Y23.528657
G0 F1000 Z4.000000 S1000
G1 F1000 X136.163388 Y23.528657 Z-5.000000
G1 F1000 X136.792359 Y23.492293 Z-5.000000
G1 F1000 X137.322323 Y23.390669 Z-5.000000
G1 F1000 X137.767757 Y23.232804 Z-5.000000
G1 F1000 X138.141338 Y23.024469 Z-5.000000
G1 F1000 X138.357571 Y22.857143 Z-5.000000
G1 F1000 X138.646263 Y22.568022 Z-5.000000
G1 F1000 X138.857769 Y22.254482 Z-5.000000
G1 F1000 X139.000571 Y21.913013 Z-5.000000
G1 F1000 X139.078222 Y21.537390 Z-5.000000
G1 F1000 X139.093242 Y21.266039 Z-5.000000
G1 F1000 X139.056878 Y20.850220 Z-5.000000
G1 F1000 X138.953073 Y20.485501 Z-5.000000
G1 F1000 X138.838990 Y20.248932 Z-5.000000
G1 F1000 X138.691189 Y20.029940 Z-5.000000
G1 F1000 X138.432641 Y19.761294 Z-5.000000
G1 F1000 X138.120242 Y19.542152 Z-5.000000
G1 F1000 X137.857608 Y19.413381 Z-5.000000
G1 F1000 X137.566296 Y19.311377 Z-5.000000
G1 F1000 X137.987538 Y19.185147 Z-5.000000
G1 F1000 X138.344827 Y19.003259 Z-5.000000
G1 F1000 X138.571043 Y18.836699 Z-5.000000
G1 F1000 X138.772455 Y18.639863 Z-5.000000
G1 F1000 X138.986335 Y18.347860 Z-5.000000
G1 F1000 X139.132624 Y18.025302 Z-5.000000
G1 F1000 X139.215140 Y17.665753 Z-5.000000
G1 F1000 X139.234388 Y17.365269 Z-5.000000
G1 F1000 X139.198025 Y16.906832 Z-5.000000
G1 F1000 X139.095129 Y16.511790 Z-5.000000
G1 F1000 X138.931559 Y16.169182 Z-5.000000
G1 F1000 X138.708335 Y15.870195 Z-5.000000
G1 F1000 X138.421690 Y15.608819 Z-5.000000
G1 F1000 X138.063564 Y15.382289 Z-5.000000
G1 F1000 X137.673225 Y15.209581 Z-5.000000
G1 F1000 X137.240414 Y15.091171 Z-5.000000
G1 F1000 X136.687665 Y15.018138 Z-5.000000
G1 F1000 X136.439345 Y15.004535 Z-5.000000
G1 F1000 X136.176219 Y15.000000 Z-5.000000
G1 F1000 X134.858854 Y15.000000 Z-5.000000
G1 F1000 X134.858854 Y16.351583 Z-5.000000
G1 F1000 X136.133447 Y16.351583 Z-5.000000
G1 F1000 X136.601908 Y16.387896 Z-5.000000
G1 F1000 X136.947674 Y16.484338 Z-5.000000
G1 F1000 X137.197662 Y16.626840 Z-5.000000
G1 F1000 X137.373407 Y16.809120 Z-5.000000
G1 F1000 X137.488538 Y17.033623 Z-5.000000
G1 F1000 X137.537233 Y17.231743 Z-5.000000
G1 F1000 X137.553464 Y17.455090 Z-5.000000
G1 F1000 X137.517101 Y17.758776 Z-5.000000
G1 F1000 X137.415437 Y18.008023 Z-5.000000
G1 F1000 X137.316063 Y18.147745 Z-5.000000
G1 F1000 X137.189906 Y18.272027 Z-5.000000
G1 F1000 X136.958352 Y18.420132 Z-5.000000
G1 F1000 X136.660992 Y18.521787 Z-5.000000
G1 F1000 X136.412218 Y18.562226 Z-5.000000
G1 F1000 X136.133447 Y18.575706 Z-5.000000
G1 F1000 X134.268606 Y18.575706 Z-5.000000
G1 F1000 X134.281437 Y15.000000 Z-5.000000
G1 F1000 X132.720274 Y15.000000 Z-5.000000
G1 F1000 X132.720274 Y23.528657 Z-5.000000
G1 F1000 X134.268606 Y23.528657 Z-5.000000
G1 F1000 X134.268606 Y22.185629 Z-5.000000
G1 F1000 X134.268606 Y19.927288 Z-5.000000
G1 F1000 X136.094953 Y19.927288 Z-5.000000
G1 F1000 X136.535338 Y19.963652 Z-5.000000
G1 F1000 X136.869832 Y20.061377 Z-5.000000
G1 F1000 X137.012840 Y20.134056 Z-5.000000
G1 F1000 X137.138580 Y20.222412 Z-5.000000
G1 F1000 X137.323167 Y20.419090 Z-5.000000
G1 F1000 X137.440751 Y20.650268 Z-5.000000
G1 F1000 X137.486792 Y20.837198 Z-5.000000
G1 F1000 X137.502139 Y21.043627 Z-5.000000
G1 F1000 X137.465775 Y21.364056 Z-5.000000
G1 F1000 X137.365304 Y21.620476 Z-5.000000
G1 F1000 X137.268978 Y21.759822 Z-5.000000
G1 F1000 X137.147134 Y21.881950 Z-5.000000
G1 F1000 X136.917215 Y22.030775 Z-5.000000
G1 F1000 X136.623087 Y22.132398 Z-5.000000
G1 F1000 X136.379868 Y22.172321 Z-5.000000
G1 F1000 X136.107784 Y22.185629 Z-5.000000
G1 F1000 X134.833191 Y22.185629 Z-5.000000
G1 F1000 X134.833191 Y23.528657 Z-5.000000
G1 F1000 X136.163388 Y23.528657 Z-5.000000
G0 F1000 Z6.000000 S0
G0 F1000 Z6.000000 S0
G0 F1000 X154.277160 Y21.094953
G0 F1000 Z4.000000 S1000
G1 F1000 X154.277160 Y21.094953 Z-5.000000
G1 F1000 X152.621899 Y20.795552 Z-5.000000
G1 F1000 X152.452012 Y21.234373 Z-5.000000
G1 F1000 X152.238450 Y21.588751 Z-5.000000
G1 F1000 X152.107620 Y21.748111 Z-5.000000
G1 F1000 X151.963216 Y21.890505 Z-5.000000
G1 F1000 X151.687933 Y22.090302 Z-5.000000
G1 F1000 X151.385468 Y22.220288 Z-5.000000
G1 F1000 X151.139985 Y22.274490 Z-5.000000
G1 F1000 X150.876818 Y22.292558 Z-5.000000
G1 F1000 X150.499375 Y22.256194 Z-5.000000
G1 F1000 X150.166185 Y22.151941 Z-5.000000
G1 F1000 X149.867823 Y21.982463 Z-5.000000
G1 F1000 X149.597367 Y21.744347 Z-5.000000
G1 F1000 X149.431138 Y21.544055 Z-5.000000
G1 F1000 X149.211839 Y21.178441 Z-5.000000
G1 F1000 X149.039840 Y20.748150 Z-5.000000
G1 F1000 X148.917714 Y20.242723 Z-5.000000
G1 F1000 X148.851042 Y19.649814 Z-5.000000
G1 F1000 X148.840890 Y19.281437 Z-5.000000
G1 F1000 X148.877253 Y18.564837 Z-5.000000
G1 F1000 X148.978111 Y17.970708 Z-5.000000
G1 F1000 X149.133015 Y17.481252 Z-5.000000
G1 F1000 X149.362703 Y17.035928 Z-5.000000
G1 F1000 X149.611498 Y16.723851 Z-5.000000
G1 F1000 X149.883141 Y16.497543 Z-5.000000
G1 F1000 X150.179584 Y16.344471 Z-5.000000
G1 F1000 X150.506387 Y16.257921 Z-5.000000
G1 F1000 X150.795552 Y16.236099 Z-5.000000
G1 F1000 X151.276696 Y16.272463 Z-5.000000
G1 F1000 X151.662895 Y16.372299 Z-5.000000
G1 F1000 X151.971746 Y16.525501 Z-5.000000
G1 F1000 X152.147134 Y16.659538 Z-5.000000
G1 F1000 X152.362068 Y16.902116 Z-5.000000
G1 F1000 X152.510422 Y17.178862 Z-5.000000
G1 F1000 X152.597334 Y17.496516 Z-5.000000
G1 F1000 X152.621899 Y17.810094 Z-5.000000
G1 F1000 X154.289991 Y17.810094 Z-5.000000
G1 F1000 X154.253628 Y17.268113 Z-5.000000
G1 F1000 X154.150368 Y16.795164 Z-5.000000
G1 F1000 X153.986455 Y16.380909 Z-5.000000
G1 F1000 X153.764557 Y16.016554 Z-5.000000
G1 F1000 X153.383234 Y15.603080 Z-5.000000
G1 F1000 X153.021478 Y15.337253 Z-5.000000
G1 F1000 X152.608574 Y15.124706 Z-5.000000
G1 F1000 X152.137460 Y14.965016 Z-5.000000
G1 F1000 X151.599270 Y14.860695 Z-5.000000
G1 F1000 X150.876818 Y14.816082 Z-5.000000
G1 F1000 X150.302382 Y14.852446 Z-5.000000
G1 F1000 X149.787897 Y14.956806 Z-5.000000
G1 F1000 X149.324938 Y15.124179 Z-5.000000
G1 F1000 X148.906217 Y15.352552 Z-5.000000
G1 F1000 X148.525904 Y15.642945 Z-5.000000
G1 F1000 X148.349392 Y15.811913 Z-5.000000
G1 F1000 X148.182207 Y15.996578 Z-5.000000
G1 F1000 X147.874891 Y16.420180 Z-5.000000
G1 F1000 X147.621712 Y16.893638 Z-5.000000
G1 F1000 X147.422017 Y17.422768 Z-5.000000
G1 F1000 X147.277357 Y18.014750 Z-5.000000
G1 F1000 X147.191381 Y18.677877 Z-5.000000
G1 F1000 X147.174235 Y18.974786 Z-5.000000
G1 F1000 X147.168520 Y19.281437 Z-5.000000
G1 F1000 X147.204884 Y20.040249 Z-5.000000
G1 F1000 X147.308148 Y20.705891 Z-5.000000
G1 F1000 X147.470988 Y21.289389 Z-5.000000
G1 F1000 X147.688144 Y21.800737 Z-5.000000
G1 F1000 X147.956622 Y22.248679 Z-5.000000
G1 F1000 X148.077907 Y22.411451 Z-5.000000
G1 F1000 X148.207870 Y22.566296 Z-5.000000
G1 F1000 X148.578623 Y22.926303 Z-5.000000
G1 F1000 X148.976795 Y23.212376 Z-5.000000
G1 F1000 X149.405100 Y23.430758 Z-5.000000
G1 F1000 X149.867965 Y23.584848 Z-5.000000
G1 F1000 X150.371254 Y23.675069 Z-5.000000
G1 F1000 X150.599391 Y23.693575 Z-5.000000
G1 F1000 X150.834046 Y23.699743 Z-5.000000
G1 F1000 X151.466506 Y23.663380 Z-5.000000
G1 F1000 X152.017043 Y23.560351 Z-5.000000
G1 F1000 X152.496690 Y23.397802 Z-5.000000
G1 F1000 X152.915162 Y23.180048 Z-5.000000
G1 F1000 X153.199316 Y22.976903 Z-5.000000
G1 F1000 X153.524543 Y22.667967 Z-5.000000
G1 F1000 X153.798124 Y22.307522 Z-5.000000
G1 F1000 X154.022837 Y21.890098 Z-5.000000
G1 F1000 X154.198626 Y21.407941 Z-5.000000
G1 F1000 X154.277160 Y21.094953 Z-5.000000
G0 F1000 Z6.000000 S0
G0 F1000 Z6.000000 S0
G0 F1000 X162.031651 Y23.528657
G0 F1000 Z4.000000 S1000
G1 F1000 X162.031651 Y23.528657 Z-5.000000
G1 F1000 X162.696183 Y23.492293 Z-5.000000
G1 F1000 X163.295301 Y23.387741 Z-5.000000
G1 F1000 X163.837043 Y23.220199 Z-5.000000
G1 F1000 X164.328578 Y22.992592 Z-5.000000
G1 F1000 X164.775978 Y22.705468 Z-5.000000
G1 F1000 X164.978134 Y22.544675 Z-5.000000
G1 F1000 X165.171086 Y22.369547 Z-5.000000
G1 F1000 X165.529732 Y21.973049 Z-5.000000
G1 F1000 X165.822540 Y21.541283 Z-5.000000
G1 F1000 X166.053566 Y21.070838 Z-5.000000
G1 F1000 X166.224465 Y20.556794 Z-5.000000
G1 F1000 X166.334461 Y19.992977 Z-5.000000
G1 F1000 X166.369757 Y19.631942 Z-5.000000
G1 F1000 X166.381523 Y19.255774 Z-5.000000
G1 F1000 X166.345159 Y18.609828 Z-5.000000
G1 F1000 X166.240591 Y18.027496 Z-5.000000
G1 F1000 X166.072914 Y17.500763 Z-5.000000
G1 F1000 X165.844836 Y17.022515 Z-5.000000
G1 F1000 X165.556587 Y16.586784 Z-5.000000
G1 F1000 X165.373047 Y16.365048 Z-5.000000
G1 F1000 X165.171086 Y16.154833 Z-5.000000
G1 F1000 X164.757595 Y15.806625 Z-5.000000
G1 F1000 X164.308038 Y15.522930 Z-5.000000
G1 F1000 X163.818685 Y15.300350 Z-5.000000
G1 F1000 X163.284413 Y15.137804 Z-5.000000
G1 F1000 X162.698942 Y15.036542 Z-5.000000
G1 F1000 X162.371184 Y15.009135 Z-5.000000
G1 F1000 X162.031651 Y15.000000 Z-5.000000
G1 F1000 X161.334474 Y15.000000 Z-5.000000
G1 F1000 X160.821215 Y15.000000 Z-5.000000
G1 F1000 X159.260051 Y15.000000 Z-5.000000
G1 F1000 X159.260051 Y23.528657 Z-5.000000
G1 F1000 X160.821215 Y23.528657 Z-5.000000
G1 F1000 X160.821215 Y16.407186 Z-5.000000
G1 F1000 X161.334474 Y16.407186 Z-5.000000
G1 F1000 X162.031651 Y16.407186 Z-5.000000
G1 F1000 X162.521650 Y16.443549 Z-5.000000
G1 F1000 X162.956082 Y16.547611 Z-5.000000
G1 F1000 X163.344005 Y16.714693 Z-5.000000
G1 F1000 X163.692906 Y16.944100 Z-5.000000
G1 F1000 X163.990590 Y17.219846 Z-5.000000
G1 F1000 X164.254572 Y17.568693 Z-5.000000
G1 F1000 X164.456024 Y17.955509 Z-5.000000
G1 F1000 X164.597523 Y18.385847 Z-5.000000
G1 F1000 X164.678175 Y18.867113 Z-5.000000
G1 F1000 X164.696322 Y19.255774 Z-5.000000
G1 F1000 X164.659958 Y19.809520 Z-5.000000
G1 F1000 X164.556558 Y20.294490 Z-5.000000
G1 F1000 X164.392270 Y20.720775 Z-5.000000
G1 F1000 X164.169828 Y21.097010 Z-5.000000
G1 F1000 X163.990590 Y21.321642 Z-5.000000
G1 F1000 X163.682364 Y21.608463 Z-5.000000
G1 F1000 X163.339221 Y21.828842 Z-5.000000
G1 F1000 X162.956655 Y21.987760 Z-5.000000
G1 F1000 X162.527800 Y22.086255 Z-5.000000
G1 F1000 X162.031651 Y22.121471 Z-5.000000
G1 F1000 X161.398631 Y22.108640 Z-5.000000
G1 F1000 X161.398631 Y23.528657 Z-5.000000
G1 F1000 X162.031651 Y23.528657 Z-5.000000
G0 F1000 Z6.000000 S0
G0 F1000 Z6.000000 S0
G0 F1000 X161.334474 Y15.000000
G0 F1000 Z4.000000 S1000
G1 F1000 X161.334474 Y15.000000 Z-5.000000
G1 F1000 X161.334474 Y16.407186 Z-5.000000
G1 F1000 X160.821215 Y16.407186 Z-5.000000
G1 F1000 X160.821215 Y15.000000 Z-5.000000
G1 F1000 X161.334474 Y15.000000 Z-5.000000
G0 F1000 Z6.000000 S0
G0 F1000 Z6.000000 S0
G0 F1000 Z6.000000 S0
G0 F1000 X45.320787 Y18.006843
G0 F1000 Z4.000000 S1000
G1 F1000 X45.320787 Y18.006843 Z-5.000000
G1 F1000 X44.140291 Y21.676647 Z-5.000000
G1 F1000 X42.929855 Y18.006843 Z-5.000000
G1 F1000 X42.536356 Y16.852010 Z-5.000000
G1 F1000 X41.933276 Y15.000000 Z-5.000000
G1 F1000 X40.290847 Y15.000000 Z-5.000000
G1 F1000 X43.190761 Y23.528657 Z-5.000000
G1 F1000 X45.149701 Y23.528657 Z-5.000000
G1 F1000 X47.934132 Y15.000000 Z-5.000000
G1 F1000 X46.291702 Y15.000000 Z-5.000000
G1 F1000 X45.701454 Y16.839179 Z-5.000000
G1 F1000 X43.062447 Y16.839179 Z-5.000000
G1 F1000 X43.443114 Y18.023952 Z-5.000000
G1 F1000 X45.320787 Y18.006843 Z-5.000000
G0 F1000 Z6.000000 S0
G0 F1000 Z6.000000 S0
G0 F1000 X56.163388 Y23.528657
G0 F1000 Z4.000000 S1000
G1 F1000 X56.163388 Y23.528657 Z-5.000000
G1 F1000 X56.792359 Y23.492293 Z-5.000000
G1 F1000 X57.322323 Y23.390669 Z-5.000000
G1 F1000 X57.767757 Y23.232804 Z-5.000000
G1 F1000 X58.141338 Y23.024469 Z-5.000000
G1 F1000 X58.357571 Y22.857143 Z-5.000000
G1 F1000 X58.646263 Y22.568022 Z-5.000000
G1 F1000 X58.857769 Y22.254482 Z-5.000000
G1 F1000 X59.000571 Y21.913013 Z-5.000000
G1 F1000 X59.078222 Y21.537390 Z-5.000000
G1 F1000 X59.093242 Y21.266039 Z-5.000000
G1 F1000 X59.056878 Y20.850220 Z-5.000000
G1 F1000 X58.953073 Y20.485501 Z-5.000000
G1 F1000 X58.838990 Y20.248932 Z-5.000000
G1 F1000 X58.691189 Y20.029940 Z-5.000000
G1 F1000 X58.432641 Y19.761294 Z-5.000000
G1 F1000 X58.120242 Y19.542152 Z-5.000000
G1 F1000 X57.857608 Y19.413381 Z-5.000000
G1 F1000 X57.566296 Y19.311377 Z-5.000000
G1 F1000 X57.987538 Y19.185147 Z-5.000000
G1 F1000 X58.344827 Y19.003259 Z-5.000000
G1 F1000 X58.571043 Y18.836699 Z-5.000000
G1 F1000 X58.772455 Y18.639863 Z-5.000000
G1 F1000 X58.986335 Y18.347860 Z-5.000000
G1 F1000 X59.132624 Y18.025302 Z-5.000000
G1 F1000 X59.215140 Y17.665753 Z-5.000000
G1 F1000 X59.234388 Y17.365269 Z-5.000000
G1 F1000 X59.198025 Y16.906832 Z-5.000000
G1 F1000 X59.095129 Y16.511790 Z-5.000000
G1 F1000 X58.931559 Y16.169182 Z-5.000000
G1 F1000 X58.708335 Y15.870195 Z-5.000000
G1 F1000 X58.421690 Y15.608819 Z-5.000000
G1 F1000 X58.063564 Y15.382289 Z-5.000000
G1 F1000 X57.673225 Y15.209581 Z-5.000000
G1 F1000 X57.240414 Y15.091171 Z-5.000000
G1 F1000 X56.687665 Y15.018138 Z-5.000000
G1 F1000 X56.439345 Y15.004535 Z-5.000000
G1 F1000 X56.176219 Y15.000000 Z-5.000000
G1 F1000 X54.858854 Y15.000000 Z-5.000000
G1 F1000 X54.858854 Y16.351583 Z-5.000000
G1 F1000 X56.133447 Y16.351583 Z-5.000000
G1 F1000 X56.601908 Y16.387896 Z-5.000000
G1 F1000 X56.947674 Y16.484338 Z-5.000000
G1 F1000 X57.197662 Y16.626840 Z-5.000000
G1 F1000 X57.373407 Y16.809120 Z-5.000000
G1 F1000 X57.488538 Y17.033623 Z-5.000000
G1 F1000 X57.537233 Y17.231743 Z-5.000000
G1 F1000 X57.553464 Y17.455090 Z-5.000000
G1 F1000 X57.517101 Y17.758776 Z-5.000000
G1 F1000 X57.415437 Y18.008023 Z-5.000000
G1 F1000 X57.316063 Y18.147745 Z-5.000000
G1 F1000 X57.189906 Y18.272027 Z-5.000000
G1 F1000 X56.958352 Y18.420132 Z-5.000000
G1 F1000 X56.660992 Y18.521787 Z-5.000000
G1 F1000 X56.412218 Y18.562226 Z-5.000000
G1 F1000 X56.133447 Y18.575706 Z-5.000000
G1 F1000 X54.268606 Y18.575706 Z-5.000000
G1 F1000 X54.281437 Y15.000000 Z-5.000000
G1 F1000 X52.720274 Y15.000000 Z-5.000000
G1 F1000 X52.720274 Y23.528657 Z-5.000000
G1 F1000 X54.268606 Y23.528657 Z-5.000000
G1 F1000 X54.268606 Y22.185629 Z-5.000000
G1 F1000 X54.268606 Y19.927288 Z-5.000000
G1 F1000 X56.094953 Y19.927288 Z-5.000000
G1 F1000 X56.535338 Y19.963652 Z-5.000000
G1 F1000 X56.869832 Y20.061377 Z-5.000000
G1 F1000 X57.012840 Y20.134056 Z-5.000000
G1 F1000 X57.138580 Y20.222412 Z-5.000000
G1 F1000 X57.323167 Y20.419090 Z-5.000000
G1 F1000 X57.440751 Y20.650268 Z-5.000000
G1 F1000 X57.486792 Y20.837198 Z-5.000000
G1 F1000 X57.502139 Y21.043627 Z-5.000000
G1 F1000 X57.465775 Y21.364056 Z-5.000000
G1 F1000 X57.365304 Y21.620476 Z-5.000000
G1 F1000 X57.268978 Y21.759822 Z-5.000000
G1 F1000 X57.147134 Y21.881950 Z-5.000000
G1 F1000 X56.917215 Y22.030775 Z-5.000000
G1 F1000 X56.623087 Y22.132398 Z-5.000000
G1 F1000 X56.379868 Y22.172321 Z-5.000000
G1 F1000 X56.107784 Y22.185629 Z-5.000000
G1 F1000 X54.833191 Y22.185629 Z-5.000000
G1 F1000 X54.833191 Y23.528657 Z-5.000000
G1 F1000 X56.163388 Y23.528657 Z-5.000000
G0 F1000 Z6.000000 S0
G0 F1000 Z6.000000 S0
G0 F1000 X69.850299 Y15.000000
G0 F1000 Z4.000000 S1000
G1 F1000 X69.850299 Y15.000000 Z-5.000000
G1 F1000 X67.604790 Y18.023952 Z-5.000000
G1 F1000 X65.607357 Y15.000000 Z-5.000000
G1 F1000 X63.712575 Y15.000000 Z-5.000000
G1 F1000 X66.723695 Y19.242943 Z-5.000000
G1 F1000 X63.699743 Y23.528657 Z-5.000000
G1 F1000 X65.607357 Y23.528657 Z-5.000000
G1 F1000 X67.763045 Y20.453379 Z-5.000000
G1 F1000 X69.627887 Y23.528657 Z-5.000000
G1 F1000 X71.505560 Y23.528657 Z-5.000000
G1 F1000 X68.627032 Y19.268606 Z-5.000000
G1 F1000 X71.796407 Y15.000000 Z-5.000000
G1 F1000 X69.850299 Y15.000000 Z-5.000000
G0 F1000 Z6.000000 S0
G0 F1000 Z6.000000 S0
G0 F1000 X79.516681 Y20.124038
G0 F1000 Z4.000000 S1000
G1 F1000 X79.516681 Y20.124038 Z-5.000000
G1 F1000 X81.484175 Y23.528657 Z-5.000000
G1 F1000 X83.310522 Y23.528657 Z-5.000000
G1 F1000 X80.278015 Y18.520103 Z-5.000000
G1 F1000 X80.278015 Y15.000000 Z-5.000000
G1 F1000 X78.725406 Y15.000000 Z-5.000000
G1 F1000 X78.725406 Y18.520103 Z-5.000000
G1 F1000 X75.795552 Y23.528657 Z-5.000000
G1 F1000 X77.634731 Y23.528657 Z-5.000000
G1 F1000 X79.516681 Y20.124038 Z-5.000000
G0 F1000 Z6.000000 S0
G0 F1000 Z6.000000 S0
G0 F1000 Z6.000000 S0
G0 F1000 X232.190633 Y15.066805
G0 F1000 Z4.000000 S1000
G1 F1000 X232.190633 Y15.066805 Z-5.000000
G1 F1000 X232.190633 Y22.137873 Z-5.000000
G1 F1000 X225.119565 Y22.137873 Z-5.000000
G1 F1000 X225.119565 Y15.066805 Z-5.000000
G1 F1000 X232.190633 Y15.066805 Z-5.000000
G0 F1000 Z6.000000 S0
G0 F1000 Z6.000000 S0
G0 F1000 X206.017842 Y23.758466
G0 F1000 Z4.000000 S1000
G1 F1000 X206.017842 Y23.758466 Z-5.000000
G1 F1000 X201.687715 Y16.258466 Z-5.000000
G1 F1000 X210.347969 Y16.258466 Z-5.000000
G1 F1000 X206.017842 Y23.758466 Z-5.000000
G0 F1000 Z6.000000 S0
G0 F1000 Z6.000000 S0
G0 F1000 X242.878860 Y19.155216
G0 F1000 Z4.000000 S1000
G1 F1000 X242.878860 Y19.155216 Z-5.000000
G3 F1000 I-4.000000 J0.000000 K0.000000 X242.878860 Y19.155216 Z-5.000000
G0 F1000 Z6.000000 S0
G0 F1000 Z6.000000 S0
G0 F1000 X212.081392 Y20.505397
G0 F1000 Z4.000000 S1000
G1 F1000 X212.081392 Y20.505397 Z-5.000000
G1 F1000 X221.620784 Y20.505397 Z-5.000000
G1 F1000 X221.620784 Y17.505397 Z-5.000000
G1 F1000 X212.081392 Y17.505397 Z-5.000000
G1 F1000 X212.081392 Y20.505397 Z-5.000000
G0 F1000 Z6.000000 S0
G0 F1000 Z6.000000 S0
G0 F1000 X215.351088 Y23.775093
G0 F1000 Z4.000000 S1000
G1 F1000 X215.351088 Y23.775093 Z-5.000000
G1 F1000 X218.351088 Y23.775093 Z-5.000000
G1 F1000 X218.351088 Y14.235701 Z-5.000000
G1 F1000 X215.351088 Y14.235701 Z-5.000000
G1 F1000 X215.351088 Y23.775093 Z-5.000000
G0 F1000 Z6.000000 S0
G0 F1000 Z6.000000 S0
G0 F1000 Z6.000000 S0
G0 F1000 X148.500000 Y35.000000
G0 F1000 Z4.000000 S1000
G1 F1000 X148.500000 Y35.000000 Z-5.000000
G1 F1000 X32.677163 Y35.000000 Z-5.000000
G3 F1000 I0.000000 J-3.586691 K0.000000 X29.090472 Y31.413309 Z-5.000000
G1 F1000 X29.090472 Y29.244978 Z-5.000000
G3 F1000 I2.244978 J0.000000 K0.000000 X31.335450 Y27.000000 Z-5.000000
G1 F1000 X266.845493 Y27.000000 Z-5.000000
G3 F1000 I0.000000 J2.244978 K0.000000 X269.090472 Y29.244978 Z-5.000000
G1 F1000 X269.090472 Y32.431079 Z-5.000000
G3 F1000 I-2.568921 J0.000000 K0.000000 X266.521550 Y35.000000 Z-5.000000
G1 F1000 X148.500000 Y35.000000 Z-5.000000
G0 F1000 Z6.000000 S0
G0 F1000 Z6.000000 S0
G0 F1000 X29.090472 Y54.244978
G0 F1000 Z4.000000 S1000
G1 F1000 X29.090472 Y54.244978 Z-5.000000
G3 F1000 I0.000000 J-25.000000 K0.000000 X29.090472 Y4.244978 Z-5.000000
G1 F1000 X269.090472 Y4.244978 Z-5.000000
G3 F1000 I0.000000 J25.000000 K0.000000 X269.090472 Y54.244978 Z-5.000000
G1 F1000 X29.090472 Y54.244978 Z-5.000000
G0 Z6.000000


(=END Engrave===========================)
(======END============)
(G00 – Rapid Positioning------------Laser OFF)
S0 
G0 Z10.000000
