

(======HEADER=====================)
(G00 – Rapid Positioning------------Laser OFF)
(G01 – Linear interpolation------------ )
(G02 – Circular interpolation CCW------------ )
(G02 – Circular interpolation CW------------ )
(Gcode G91 & Gcode G90: CNC Absolute and Incremental Programming)
(S00 - S1000 Spindle speed)
(M03 – Spindle on in a clockwise)
(======POST PROCESSING===========)
(REPLACE (CUT); (CUT) \r\n S1000	(---Laser 100% ON))
(REPLACE F0.166667 ; F1000)
(REPLACE F8.333333 ; F1000)
(REPLACE F0.000000 ; F1000)
(REPLACE Z-5.000000 ;  )
(REPLACE Z-5.000000 ; \r\n S1000	(---Laser 100% ON))
(======START=====================)
(======CODE MANDATORY============)
M3 S0  (M03 – Spindle on in a clockwise)
(================================)
(=BEGIN Engrave=========================)

(Engrave002)
G0 F0.000000 Z6.000000
G0 F0.000000 Z6.000000
G0 F0.000000 X277.908667 Y38.607820
G0 F0.000000 Z4.000000
S100 		(--Laser 100% ON)
G1 F0.000000 X277.908667 Y38.607820 Z-5.000000
G1 F0.000000 X277.908667 Y42.143354 Z-5.000000
G1 F0.000000 X274.373133 Y42.143354 Z-5.000000
G1 F0.000000 X274.373133 Y38.607820 Z-5.000000
G1 F0.000000 X277.908667 Y38.607820 Z-5.000000
S0 		(--Laser 000% OFF)
S0
G0 F0.000000 Z6.000000
G0 F0.000000 Z6.000000
G0 F0.000000 X281.140900 Y47.875587
G0 F0.000000 Z4.000000
S100 		(--Laser 100% ON)
G1 F0.000000 X281.140900 Y47.875587 Z-5.000000
G1 F0.000000 X278.975836 Y44.125587 Z-5.000000
G1 F0.000000 X283.305964 Y44.125587 Z-5.000000
G1 F0.000000 X281.140900 Y47.875587 Z-5.000000
S0 		(--Laser 000% OFF)
G0 F0.000000 Z6.000000
G0 F0.000000 Z6.000000
G0 F0.000000 X288.140900 Y40.375587
G0 F0.000000 Z4.000000
S100 		(--Laser 100% ON)
G1 F0.000000 X288.140900 Y40.375587 Z-5.000000
G3 F0.000000 I-2.000000 J0.000000 K0.000000 X288.140900 Y40.375587 Z-5.000000
S0 		(--Laser 000% OFF)
G0 F0.000000 Z6.000000
G0 F0.000000 Z6.000000
G0 F0.000000 X278.756052 Y36.125587
G0 F0.000000 Z4.000000
S100 		(--Laser 100% ON)
G1 F0.000000 X278.756052 Y36.125587 Z-5.000000
G1 F0.000000 X283.525748 Y36.125587 Z-5.000000
G1 F0.000000 X283.525748 Y34.625587 Z-5.000000
G1 F0.000000 X278.756052 Y34.625587 Z-5.000000
G1 F0.000000 X278.756052 Y36.125587 Z-5.000000
S0 		(--Laser 000% OFF)
G0 F0.000000 Z6.000000
G0 F0.000000 Z6.000000
G0 F0.000000 X280.390900 Y37.760435
G0 F0.000000 Z4.000000
S100 		(--Laser 100% ON)
G1 F0.000000 X280.390900 Y37.760435 Z-5.000000
G1 F0.000000 X281.890900 Y37.760435 Z-5.000000
G1 F0.000000 X281.890900 Y32.990739 Z-5.000000
G1 F0.000000 X280.390900 Y32.990739 Z-5.000000
G1 F0.000000 X280.390900 Y37.760435 Z-5.000000
S0 		(--Laser 000% OFF)
G0 F0.000000 Z6.000000
G0 F0.000000 Z6.000000
G0 F0.000000 X0.000000 Y50.000000
G0 F0.000000 Z4.000000
S100 		(--Laser 100% ON)
G1 F0.000000 X0.000000 Y50.000000 Z-5.000000
G1 F0.000000 X148.500000 Y50.000000 Z-5.000000
G1 F0.000000 X297.000000 Y50.000000 Z-5.000000
S0 		(--Laser 000% OFF)
G0 F0.000000 Z6.000000
G0 F0.000000 Z6.000000
G0 F0.000000 X266.000000 Y35.000000
G0 F0.000000 Z4.000000
S100 		(--Laser 100% ON)
G1 F0.000000 X266.000000 Y35.000000 Z-5.000000
G1 F0.000000 X148.500000 Y35.000000 Z-5.000000
G1 F0.000000 X31.000000 Y35.000000 Z-5.000000
G1 F0.000000 X31.000000 Y27.000000 Z-5.000000
G1 F0.000000 X266.000000 Y27.000000 Z-5.000000
G1 F0.000000 X266.000000 Y35.000000 Z-5.000000
S0 		(--Laser 000% OFF)
G0 F0.000000 Z6.000000
G0 F0.000000 Z6.000000
G0 F0.000000 X148.500000 Y50.000000
G0 F0.000000 Z4.000000
S0 		(--Laser 100% ON)
G1 F0.000000 X148.500000 Y50.000000 Z-5.000000
G1 F0.000000 X148.500000 Y35.000000 Z-5.000000
G0 Z6.000000



(=END Engrave===========================)
(======END============)
S0 		(--Laser 000% OFF)
