(======HEADER=====================)
(G00 – Rapid Positioning------------Laser OFF)
(G01 – Linear interpolation------------ )
(G02 – Circular interpolation CCW------------ )
(G02 – Circular interpolation CW------------ )
(Gcode G91 & Gcode G90: CNC Absolute and Incremental Programming)
(S00 - S1000 Spindle speed)
(M03 – Spindle on in a clockwise)
(======POST PROCESSING===========)
(REPLACE (CUT); (CUT) \r\n S1000	(---Laser 100% ON))
(REPLACE F0.166667 ; F1000)
(REPLACE F8.333333 ; F1000)
(REPLACE F0.000000 ; F1000)
(REPLACE Z-5.000000 ;  )
(REPLACE Z-5.000000 ; \r\n S1000	(---Laser 100% ON))
(======START=====================)
(======CODE MANDATORY============)
M3 S0  (M03 – Spindle on in a clockwise)
(================================)
(=BEGIN Engrave=========================)

G0 F0.000000 Z6.000000
G0 F0.000000 Z6.000000
G0 F0.000000 X0.000000 Y0.000000
G0 F0.000000 Z4.000000
G1 F0.000000 X0.000000 Y0.000000 Z-5.000000
G1 F0.000000 X297.000000 Y0.000000 Z-5.000000
G1 F0.000000 X297.000000 Y210.000000 Z-5.000000
G1 F0.000000 X0.000000 Y210.000000 Z-5.000000
G1 F0.000000 X0.000000 Y0.000000 Z-5.000000
G0 Z6.000000


(Engrave002)
G0 F0.000000 Z6.000000
G0 F0.000000 Z6.000000
G0 F0.000000 X35.661844 Y29.824398
G0 F0.000000 Z4.000000
G1 F0.000000 X35.661844 Y29.824398 Z-5.000000
G1 F0.000000 X35.661844 Y33.359932 Z-5.000000
G1 F0.000000 X32.126310 Y33.359932 Z-5.000000
G1 F0.000000 X32.126310 Y29.824398 Z-5.000000
G1 F0.000000 X35.661844 Y29.824398 Z-5.000000
G0 F0.000000 Z6.000000
G0 F0.000000 Z6.000000
G0 F0.000000 X38.894077 Y39.092165
G0 F0.000000 Z4.000000
G1 F0.000000 X38.894077 Y39.092165 Z-5.000000
G1 F0.000000 X36.729013 Y35.342165 Z-5.000000
G1 F0.000000 X41.059141 Y35.342165 Z-5.000000
G1 F0.000000 X38.894077 Y39.092165 Z-5.000000
G0 F0.000000 Z6.000000
G0 F0.000000 Z6.000000
G0 F0.000000 X45.894077 Y31.592165
G0 F0.000000 Z4.000000
G1 F0.000000 X45.894077 Y31.592165 Z-5.000000
G3 F0.000000 I-2.000000 J0.000000 K0.000000 X45.894077 Y31.592165 Z-5.000000
G0 F0.000000 Z6.000000
G0 F0.000000 Z6.000000
G0 F0.000000 X36.509229 Y27.342165
G0 F0.000000 Z4.000000
G1 F0.000000 X36.509229 Y27.342165 Z-5.000000
G1 F0.000000 X41.278925 Y27.342165 Z-5.000000
G1 F0.000000 X41.278925 Y25.842165 Z-5.000000
G1 F0.000000 X36.509229 Y25.842165 Z-5.000000
G1 F0.000000 X36.509229 Y27.342165 Z-5.000000
G0 F0.000000 Z6.000000
G0 F0.000000 Z6.000000
G0 F0.000000 X38.144077 Y28.977013
G0 F0.000000 Z4.000000
G1 F0.000000 X38.144077 Y28.977013 Z-5.000000
G1 F0.000000 X39.644077 Y28.977013 Z-5.000000
G1 F0.000000 X39.644077 Y24.207317 Z-5.000000
G1 F0.000000 X38.144077 Y24.207317 Z-5.000000
G1 F0.000000 X38.144077 Y28.977013 Z-5.000000
G0 Z6.000000


(=END Engrave===========================)
(======END============)
S0 		(--Laser 000% OFF)
